X:125
T:Russian Dance. Le4.125
M:2/4
L:1/8
Q:1/4=90
B:L.Leadley MS#4 c1850
Z:Village Music Project, 2016 Ruairidh Greig
K:C
G/c/|e(G/c/) e(G/c/)|(f/g/) (e/f/) d(G/B/)|d(G/B/) d(c/d/)|(e/f/)(d/e/)c2:|
|:(g/f/)|e(e/d/) c(c'/b/)|a/^g/a/g/ a/=g/f/e/|(d/e/)(c/d/) (B/d/)(g/B/)|{d}(c/B/)(c/d/) c2:|

